X:1
T:Bezeichnung standardisiert: Vetter Michel; Broeder Michel;
T:Bezeichnung standardisiert: Vetter Michel; Broeder Michel;
T:1 [Dantz in C nach Johann Friedrich Drey\sser, 1720] In anderer Quelle: Broeder Miggel - Hs. Musicq boek, ab 1740 (Anm. S. Wascher);  Tanz Feder Michel - Dahlhoff 1773  (Anm. S. Wascher);  Vetter Michel - Hs. Wernigerode 1786 (Anm. S. Wascher);  Vedder Michel - Das kleine dicke Liederbuch 1989 (Anm. S. Wascher);
T:Urheber unbekannt Erstbeleg: ab 1720 (Datum in der schriftlichen Quelle)
C:Urheber unbekannt
C:Erstbeleg: ab 1720 (Datum in der schriftlichen Quelle)
%%score 1 2
L:1/8
M:4/4
K:C
V:1 treble 
V:2 bass 
V:1
 gf | e2 c2 c2 Bc | d2 G2 G2 gf | e2 c2 c2 Bc | d6 :: de | f2 f2 f2 gf | e2 e2 e2 ag | %8
 ^f2 g2 g2"^\201" f2 | g2 g2 g2 de | f2 f2 f2 gf | e2 e2 e2 dc | B2 cd d3 c | c2 c2 c2 :| %14
V:2
 !fermata!C,2 | C,4 C,2 G,2 | G,4 G,,2 C,2 | C,4 C,2 G,2 | G,,6 :: G,2 | D,2 D,2 D,2 C,2 | %7
 C,4 C,2 D,2 | D,2 G,2 D,2 F,,2 | G,,2 G,,2 G,,2 G,2 | D,2 D,2 D,2 C,2 | C,4 C,2 G,2 | %12
 G,2 C,2 G,2 F,,2 | C,2 C,2 C,2 :| %14

